assets/tab_settings.svg

<svg fill="none" height="23" viewBox="0 0 22 23" width="22" xmlns="http://www.w3.org/2000/svg" xmlns:xlink="http://www.w3.org/1999/xlink"><mask id="a" fill="#000" height="23" maskUnits="userSpaceOnUse" width="23" x="-.800781" y="0"><path d="m-.800781 0h23v23h-23z" fill="#fff"/><path d="m20.8249 12.8068-1.7024-.7075c.0221-.199.0221-.398.0221-.597s0-.398-.0221-.597l1.7024-.7075c.2211-.0884.3317-.33166.2654-.55276l-.9066-2.76376c-.0663-.2211-.3095-.35376-.5306-.30954l-1.7909.42009c-.199-.33165-.4422-.64119-.7075-.95073l.9728-1.59193c.1327-.19899.0663-.46431-.1105-.59697l-2.3658-1.70248c-.199-.13266-.4643-.11055-.6191.06633l-1.1939 1.41505c-.3759-.15477-.7518-.28743-1.1277-.37587l-.1547-1.83514c-.0221-.24321-.2211-.42009-.4643-.42009h-2.89647c-.24321 0-.4422.17688-.46431.42009l-.15477 1.83514c-.37587.08844-.75174.2211-1.12762.37587l-1.17183-1.41505c-.15477-.17688-.42009-.2211-.61908-.06633l-2.34367 1.70248c-.19899.13266-.24321.39798-.11055.59697l.97284 1.59193c-.26532.30954-.48642.61908-.70752.95073l-1.79092-.42009c-.2211-.04422-.46431.06633-.53064.30954l-.928624 2.76376c-.06633.2211.04422.46436.265321.55276l1.702473.7075c-.02211.199-.02211.398-.02211.597s0 .398.02211.597l-1.702473.7075c-.221101.0884-.331651.3316-.265321.5527l.906514 2.7638c.06633.2211.30954.3538.53064.3095l1.79092-.4201c.19899.3317.4422.6634.70752.9508l-.97284 1.5919c-.13266.199-.06633.4643.11055.597l2.34367 1.7025c.19899.1326.46431.1105.61908-.0664l1.19394-1.415c.37588.1548.75175.2874 1.12762.3759l.15477 1.8351c.02211.2432.2211.4201.46431.4201h2.89647c.2432 0 .4422-.1769.4643-.4201l.1547-1.8351c.3759-.0885.7518-.2211 1.1277-.3759l1.1939 1.415c.1548.1769.4201.2211.6191.0664l2.3436-1.7025c.199-.1327.2433-.398.1106-.597l-.9728-1.5919c.2653-.3096.4864-.6191.7075-.9508l1.7909.4201c.2211.0443.4643-.0663.5306-.3095l.9065-2.7638c.0885-.2211-.0221-.4643-.2432-.5527zm-1.3708 2.6311-1.7025-.398c-.199-.0442-.3979.0442-.5085.2211-.2653.4864-.597.9286-.995 1.3487-.1326.1548-.1547.3759-.0442.5528l.9287 1.5035-1.6583 1.216-1.1497-1.3487c-.1327-.1548-.3538-.199-.5307-.1106-.5306.2433-1.0613.4201-1.5919.5307-.199.0442-.3538.199-.3538.4201l-.1326 1.7467h-2.05626l-.13266-1.7467c-.02211-.199-.15477-.3759-.35376-.4201-.53064-.1106-1.06128-.2874-1.59193-.5307-.17688-.0884-.39798-.0442-.53064.1106l-1.14972 1.3487-1.65826-1.216.92863-1.5035c.11055-.1769.08844-.398-.04422-.5528-.37588-.4201-.70753-.8623-.99496-1.3487-.11055-.1769-.30954-.2653-.50853-.2211l-1.72459.4201-.68541-1.9678 1.63615-.6854c.17688-.0885.30954-.2653.28743-.4643-.02211-.3096-.04422-.5749-.04422-.8402s.02211-.5307.04422-.8402c.02211-.199-.08844-.398-.28743-.4643l-1.63615-.68542.64119-1.9678 1.72459.4201c.19899.04422.39798-.04422.50853-.2211.26532-.48643.59697-.92863.99496-1.34872.13266-.15477.15477-.37587.04422-.55275l-.92863-1.50349 1.65826-1.21605 1.14972 1.34871c.13266.15477.35376.19899.53065.11055.53064-.24321 1.06128-.42009 1.59192-.53064.19899-.04422.35376-.19899.35376-.42009l.13266-1.7467h2.05628l.1326 1.7467c.0221.19899.1548.37587.3538.42009.5306.11055 1.0613.28743 1.5919.53064.1769.08844.398.04422.5307-.11055l1.1497-1.34871 1.6582 1.21605-.9286 1.50349c-.1105.17688-.0884.39798.0442.55275.3759.42009.7076.8844.995 1.34872.1105.17688.3095.26532.5085.2211l1.7246-.4201.6412 1.9678-1.6362.68542c-.1768.0884-.3095.2653-.2874.4643.0221.3095.0442.5749.0442.8402s-.0221.5306-.0442.8402c-.0221.199.0885.398.2874.4643l1.6362.6854z" fill="#000"/></mask><path d="m10.6548 6.69297c-2.66456 0-4.80949 2.16764-4.80949 4.80943 0 2.6645 2.16765 4.8095 4.80949 4.8095 2.6418 0 4.8094-2.145 4.8094-4.8095 0-2.6642-2.1452-4.80943-4.8094-4.80943zm0 8.51243c-2.04527 0-3.70297-1.6578-3.70297-3.703 0-2.04521 1.6577-3.70292 3.70297-3.70292 2.0452 0 3.7029 1.65771 3.7029 3.70292 0 2.0452-1.6577 3.703-3.7029 3.703z" fill="#191919" stroke="#191919" stroke-width=".2"/><path d="m20.8249 12.8068-1.7024-.7075c.0221-.199.0221-.398.0221-.597s0-.398-.0221-.597l1.7024-.7075c.2211-.0884.3317-.33166.2654-.55276l-.9066-2.76376c-.0663-.2211-.3095-.35376-.5306-.30954l-1.7909.42009c-.199-.33165-.4422-.64119-.7075-.95073l.9728-1.59193c.1327-.19899.0663-.46431-.1105-.59697l-2.3658-1.70248c-.199-.13266-.4643-.11055-.6191.06633l-1.1939 1.41505c-.3759-.15477-.7518-.28743-1.1277-.37587l-.1547-1.83514c-.0221-.24321-.2211-.42009-.4643-.42009h-2.89647c-.24321 0-.4422.17688-.46431.42009l-.15477 1.83514c-.37587.08844-.75174.2211-1.12762.37587l-1.17183-1.41505c-.15477-.17688-.42009-.2211-.61908-.06633l-2.34367 1.70248c-.19899.13266-.24321.39798-.11055.59697l.97284 1.59193c-.26532.30954-.48642.61908-.70752.95073l-1.79092-.42009c-.2211-.04422-.46431.06633-.53064.30954l-.928624 2.76376c-.06633.2211.04422.46436.265321.55276l1.702473.7075c-.02211.199-.02211.398-.02211.597s0 .398.02211.597l-1.702473.7075c-.221101.0884-.331651.3316-.265321.5527l.906514 2.7638c.06633.2211.30954.3538.53064.3095l1.79092-.4201c.19899.3317.4422.6634.70752.9508l-.97284 1.5919c-.13266.199-.06633.4643.11055.597l2.34367 1.7025c.19899.1326.46431.1105.61908-.0664l1.19394-1.415c.37588.1548.75175.2874 1.12762.3759l.15477 1.8351c.02211.2432.2211.4201.46431.4201h2.89647c.2432 0 .4422-.1769.4643-.4201l.1547-1.8351c.3759-.0885.7518-.2211 1.1277-.3759l1.1939 1.415c.1548.1769.4201.2211.6191.0664l2.3436-1.7025c.199-.1327.2433-.398.1106-.597l-.9728-1.5919c.2653-.3096.4864-.6191.7075-.9508l1.7909.4201c.2211.0443.4643-.0663.5306-.3095l.9065-2.7638c.0885-.2211-.0221-.4643-.2432-.5527zm-1.3708 2.6311-1.7025-.398c-.199-.0442-.3979.0442-.5085.2211-.2653.4864-.597.9286-.995 1.3487-.1326.1548-.1547.3759-.0442.5528l.9287 1.5035-1.6583 1.216-1.1497-1.3487c-.1327-.1548-.3538-.199-.5307-.1106-.5306.2433-1.0613.4201-1.5919.5307-.199.0442-.3538.199-.3538.4201l-.1326 1.7467h-2.05626l-.13266-1.7467c-.02211-.199-.15477-.3759-.35376-.4201-.53064-.1106-1.06128-.2874-1.59193-.5307-.17688-.0884-.39798-.0442-.53064.1106l-1.14972 1.3487-1.65826-1.216.92863-1.5035c.11055-.1769.08844-.398-.04422-.5528-.37588-.4201-.70753-.8623-.99496-1.3487-.11055-.1769-.30954-.2653-.50853-.2211l-1.72459.4201-.68541-1.9678 1.63615-.6854c.17688-.0885.30954-.2653.28743-.4643-.02211-.3096-.04422-.5749-.04422-.8402s.02211-.5307.04422-.8402c.02211-.199-.08844-.398-.28743-.4643l-1.63615-.68542.64119-1.9678 1.72459.4201c.19899.04422.39798-.04422.50853-.2211.26532-.48643.59697-.92863.99496-1.34872.13266-.15477.15477-.37587.04422-.55275l-.92863-1.50349 1.65826-1.21605 1.14972 1.34871c.13266.15477.35376.19899.53065.11055.53064-.24321 1.06128-.42009 1.59192-.53064.19899-.04422.35376-.19899.35376-.42009l.13266-1.7467h2.05628l.1326 1.7467c.0221.19899.1548.37587.3538.42009.5306.11055 1.0613.28743 1.5919.53064.1769.08844.398.04422.5307-.11055l1.1497-1.34871 1.6582 1.21605-.9286 1.50349c-.1105.17688-.0884.39798.0442.55275.3759.42009.7076.8844.995 1.34872.1105.17688.3095.26532.5085.2211l1.7246-.4201.6412 1.9678-1.6362.68542c-.1768.0884-.3095.2653-.2874.4643.0221.3095.0442.5749.0442.8402s-.0221.5306-.0442.8402c-.0221.199.0885.398.2874.4643l1.6362.6854z" fill="#191919"/><path d="m20.8249 12.8068-1.7024-.7075c.0221-.199.0221-.398.0221-.597s0-.398-.0221-.597l1.7024-.7075c.2211-.0884.3317-.33166.2654-.55276l-.9066-2.76376c-.0663-.2211-.3095-.35376-.5306-.30954l-1.7909.42009c-.199-.33165-.4422-.64119-.7075-.95073l.9728-1.59193c.1327-.19899.0663-.46431-.1105-.59697l-2.3658-1.70248c-.199-.13266-.4643-.11055-.6191.06633l-1.1939 1.41505c-.3759-.15477-.7518-.28743-1.1277-.37587l-.1547-1.83514c-.0221-.24321-.2211-.42009-.4643-.42009h-2.89647c-.24321 0-.4422.17688-.46431.42009l-.15477 1.83514c-.37587.08844-.75174.2211-1.12762.37587l-1.17183-1.41505c-.15477-.17688-.42009-.2211-.61908-.06633l-2.34367 1.70248c-.19899.13266-.24321.39798-.11055.59697l.97284 1.59193c-.26532.30954-.48642.61908-.70752.95073l-1.79092-.42009c-.2211-.04422-.46431.06633-.53064.30954l-.928624 2.76376c-.06633.2211.04422.46436.265321.55276l1.702473.7075c-.02211.199-.02211.398-.02211.597s0 .398.02211.597l-1.702473.7075c-.221101.0884-.331651.3316-.265321.5527l.906514 2.7638c.06633.2211.30954.3538.53064.3095l1.79092-.4201c.19899.3317.4422.6634.70752.9508l-.97284 1.5919c-.13266.199-.06633.4643.11055.597l2.34367 1.7025c.19899.1326.46431.1105.61908-.0664l1.19394-1.415c.37588.1548.75175.2874 1.12762.3759l.15477 1.8351c.02211.2432.2211.4201.46431.4201h2.89647c.2432 0 .4422-.1769.4643-.4201l.1547-1.8351c.3759-.0885.7518-.2211 1.1277-.3759l1.1939 1.415c.1548.1769.4201.2211.6191.0664l2.3436-1.7025c.199-.1327.2433-.398.1106-.597l-.9728-1.5919c.2653-.3096.4864-.6191.7075-.9508l1.7909.4201c.2211.0443.4643-.0663.5306-.3095l.9065-2.7638c.0885-.2211-.0221-.4643-.2432-.5527zm-1.3708 2.6311-1.7025-.398c-.199-.0442-.3979.0442-.5085.2211-.2653.4864-.597.9286-.995 1.3487-.1326.1548-.1547.3759-.0442.5528l.9287 1.5035-1.6583 1.216-1.1497-1.3487c-.1327-.1548-.3538-.199-.5307-.1106-.5306.2433-1.0613.4201-1.5919.5307-.199.0442-.3538.199-.3538.4201l-.1326 1.7467h-2.05626l-.13266-1.7467c-.02211-.199-.15477-.3759-.35376-.4201-.53064-.1106-1.06128-.2874-1.59193-.5307-.17688-.0884-.39798-.0442-.53064.1106l-1.14972 1.3487-1.65826-1.216.92863-1.5035c.11055-.1769.08844-.398-.04422-.5528-.37588-.4201-.70753-.8623-.99496-1.3487-.11055-.1769-.30954-.2653-.50853-.2211l-1.72459.4201-.68541-1.9678 1.63615-.6854c.17688-.0885.30954-.2653.28743-.4643-.02211-.3096-.04422-.5749-.04422-.8402s.02211-.5307.04422-.8402c.02211-.199-.08844-.398-.28743-.4643l-1.63615-.68542.64119-1.9678 1.72459.4201c.19899.04422.39798-.04422.50853-.2211.26532-.48643.59697-.92863.99496-1.34872.13266-.15477.15477-.37587.04422-.55275l-.92863-1.50349 1.65826-1.21605 1.14972 1.34871c.13266.15477.35376.19899.53065.11055.53064-.24321 1.06128-.42009 1.59192-.53064.19899-.04422.35376-.19899.35376-.42009l.13266-1.7467h2.05628l.1326 1.7467c.0221.19899.1548.37587.3538.42009.5306.11055 1.0613.28743 1.5919.53064.1769.08844.398.04422.5307-.11055l1.1497-1.34871 1.6582 1.21605-.9286 1.50349c-.1105.17688-.0884.39798.0442.55275.3759.42009.7076.8844.995 1.34872.1105.17688.3095.26532.5085.2211l1.7246-.4201.6412 1.9678-1.6362.68542c-.1768.0884-.3095.2653-.2874.4643.0221.3095.0442.5749.0442.8402s-.0221.5306-.0442.8402c-.0221.199.0885.398.2874.4643l1.6362.6854z" mask="url(#a)" stroke="#191919" stroke-width=".4"/></svg>

<svg width="22" height="23" viewBox="0 0 22 23" fill="none" xmlns="http://www.w3.org/2000/svg">
<path d="M10.6548 6.69297C7.99024 6.69297 5.84531 8.86061 5.84531 11.5024C5.84531 14.1669 8.01296 16.3119 10.6548 16.3119C13.2966 16.3119 15.4642 14.1669 15.4642 11.5024C15.4642 8.8382 13.319 6.69297 10.6548 6.69297ZM10.6548 15.2054C8.60953 15.2054 6.95183 13.5476 6.95183 11.5024C6.95183 9.45719 8.60953 7.79948 10.6548 7.79948C12.7 7.79948 14.3577 9.45719 14.3577 11.5024C14.3577 13.5476 12.7 15.2054 10.6548 15.2054Z" fill="#191919" stroke="#191919" stroke-width="0.2"/>
<mask id="path-2-outside-1_13542_8387" maskUnits="userSpaceOnUse" x="-0.800781" y="0" width="23" height="23" fill="black">
<rect fill="white" x="-0.800781" width="23" height="23"/>
<path d="M20.8249 12.8068L19.1225 12.0993C19.1446 11.9003 19.1446 11.7013 19.1446 11.5023C19.1446 11.3033 19.1446 11.1043 19.1225 10.9053L20.8249 10.1978C21.046 10.1094 21.1566 9.86614 21.0903 9.64504L20.1837 6.88128C20.1174 6.66018 19.8742 6.52752 19.6531 6.57174L17.8622 6.99183C17.6632 6.66018 17.42 6.35064 17.1547 6.0411L18.1275 4.44917C18.2602 4.25018 18.1938 3.98486 18.017 3.8522L15.6512 2.14972C15.4522 2.01706 15.1869 2.03917 15.0321 2.21605L13.8382 3.6311C13.4623 3.47633 13.0864 3.34367 12.7105 3.25523L12.5558 1.42009C12.5337 1.17688 12.3347 1 12.0915 1H9.19503C8.95182 1 8.75283 1.17688 8.73072 1.42009L8.57595 3.25523C8.20008 3.34367 7.82421 3.47633 7.44833 3.6311L6.2765 2.21605C6.12173 2.03917 5.85641 1.99495 5.65742 2.14972L3.31375 3.8522C3.11476 3.98486 3.07054 4.25018 3.2032 4.44917L4.17604 6.0411C3.91072 6.35064 3.68962 6.66018 3.46852 6.99183L1.6776 6.57174C1.4565 6.52752 1.21329 6.63807 1.14696 6.88128L0.218336 9.64504C0.152006 9.86614 0.262556 10.1094 0.483657 10.1978L2.18613 10.9053C2.16402 11.1043 2.16402 11.3033 2.16402 11.5023C2.16402 11.7013 2.16402 11.9003 2.18613 12.0993L0.483657 12.8068C0.262556 12.8952 0.152006 13.1384 0.218336 13.3595L1.12485 16.1233C1.19118 16.3444 1.43439 16.4771 1.65549 16.4328L3.44641 16.0127C3.6454 16.3444 3.88861 16.6761 4.15393 16.9635L3.18109 18.5554C3.04843 18.7544 3.11476 19.0197 3.29164 19.1524L5.63531 20.8549C5.8343 20.9875 6.09962 20.9654 6.25439 20.7885L7.44833 19.3735C7.82421 19.5283 8.20008 19.6609 8.57595 19.7494L8.73072 21.5845C8.75283 21.8277 8.95182 22.0046 9.19503 22.0046H12.0915C12.3347 22.0046 12.5337 21.8277 12.5558 21.5845L12.7105 19.7494C13.0864 19.6609 13.4623 19.5283 13.8382 19.3735L15.0321 20.7885C15.1869 20.9654 15.4522 21.0096 15.6512 20.8549L17.9948 19.1524C18.1938 19.0197 18.2381 18.7544 18.1054 18.5554L17.1326 16.9635C17.3979 16.6539 17.619 16.3444 17.8401 16.0127L19.631 16.4328C19.8521 16.4771 20.0953 16.3665 20.1616 16.1233L21.0681 13.3595C21.1566 13.1384 21.046 12.8952 20.8249 12.8068ZM19.4541 15.4379L17.7516 15.0399C17.5526 14.9957 17.3537 15.0841 17.2431 15.261C16.9778 15.7474 16.6461 16.1896 16.2481 16.6097C16.1155 16.7645 16.0934 16.9856 16.2039 17.1625L17.1326 18.666L15.4743 19.882L14.3246 18.5333C14.1919 18.3785 13.9708 18.3343 13.7939 18.4227C13.2633 18.666 12.7326 18.8428 12.202 18.9534C12.003 18.9976 11.8482 19.1524 11.8482 19.3735L11.7156 21.1202H9.65934L9.52668 19.3735C9.50457 19.1745 9.37191 18.9976 9.17292 18.9534C8.64228 18.8428 8.11164 18.666 7.58099 18.4227C7.40411 18.3343 7.18301 18.3785 7.05035 18.5333L5.90063 19.882L4.24237 18.666L5.171 17.1625C5.28155 16.9856 5.25944 16.7645 5.12678 16.6097C4.7509 16.1896 4.41925 15.7474 4.13182 15.261C4.02127 15.0841 3.82228 14.9957 3.62329 15.0399L1.8987 15.46L1.21329 13.4922L2.84944 12.8068C3.02632 12.7183 3.15898 12.5415 3.13687 12.3425C3.11476 12.0329 3.09265 11.7676 3.09265 11.5023C3.09265 11.237 3.11476 10.9716 3.13687 10.6621C3.15898 10.4631 3.04843 10.2641 2.84944 10.1978L1.21329 9.51238L1.85448 7.54458L3.57907 7.96468C3.77806 8.0089 3.97705 7.92046 4.0876 7.74358C4.35292 7.25715 4.68457 6.81495 5.08256 6.39486C5.21522 6.24009 5.23733 6.01899 5.12678 5.84211L4.19815 4.33862L5.85641 3.12257L7.00613 4.47128C7.13879 4.62605 7.35989 4.67027 7.53678 4.58183C8.06742 4.33862 8.59806 4.16174 9.1287 4.05119C9.32769 4.00697 9.48246 3.8522 9.48246 3.6311L9.61512 1.8844H11.6714L11.804 3.6311C11.8261 3.83009 11.9588 4.00697 12.1578 4.05119C12.6884 4.16174 13.2191 4.33862 13.7497 4.58183C13.9266 4.67027 14.1477 4.62605 14.2804 4.47128L15.4301 3.12257L17.0883 4.33862L16.1597 5.84211C16.0492 6.01899 16.0713 6.24009 16.2039 6.39486C16.5798 6.81495 16.9115 7.27926 17.1989 7.74358C17.3094 7.92046 17.5084 8.0089 17.7074 7.96468L19.432 7.54458L20.0732 9.51238L18.437 10.1978C18.2602 10.2862 18.1275 10.4631 18.1496 10.6621C18.1717 10.9716 18.1938 11.237 18.1938 11.5023C18.1938 11.7676 18.1717 12.0329 18.1496 12.3425C18.1275 12.5415 18.2381 12.7405 18.437 12.8068L20.0732 13.4922L19.4541 15.4379Z"/>
</mask>
<path d="M20.8249 12.8068L19.1225 12.0993C19.1446 11.9003 19.1446 11.7013 19.1446 11.5023C19.1446 11.3033 19.1446 11.1043 19.1225 10.9053L20.8249 10.1978C21.046 10.1094 21.1566 9.86614 21.0903 9.64504L20.1837 6.88128C20.1174 6.66018 19.8742 6.52752 19.6531 6.57174L17.8622 6.99183C17.6632 6.66018 17.42 6.35064 17.1547 6.0411L18.1275 4.44917C18.2602 4.25018 18.1938 3.98486 18.017 3.8522L15.6512 2.14972C15.4522 2.01706 15.1869 2.03917 15.0321 2.21605L13.8382 3.6311C13.4623 3.47633 13.0864 3.34367 12.7105 3.25523L12.5558 1.42009C12.5337 1.17688 12.3347 1 12.0915 1H9.19503C8.95182 1 8.75283 1.17688 8.73072 1.42009L8.57595 3.25523C8.20008 3.34367 7.82421 3.47633 7.44833 3.6311L6.2765 2.21605C6.12173 2.03917 5.85641 1.99495 5.65742 2.14972L3.31375 3.8522C3.11476 3.98486 3.07054 4.25018 3.2032 4.44917L4.17604 6.0411C3.91072 6.35064 3.68962 6.66018 3.46852 6.99183L1.6776 6.57174C1.4565 6.52752 1.21329 6.63807 1.14696 6.88128L0.218336 9.64504C0.152006 9.86614 0.262556 10.1094 0.483657 10.1978L2.18613 10.9053C2.16402 11.1043 2.16402 11.3033 2.16402 11.5023C2.16402 11.7013 2.16402 11.9003 2.18613 12.0993L0.483657 12.8068C0.262556 12.8952 0.152006 13.1384 0.218336 13.3595L1.12485 16.1233C1.19118 16.3444 1.43439 16.4771 1.65549 16.4328L3.44641 16.0127C3.6454 16.3444 3.88861 16.6761 4.15393 16.9635L3.18109 18.5554C3.04843 18.7544 3.11476 19.0197 3.29164 19.1524L5.63531 20.8549C5.8343 20.9875 6.09962 20.9654 6.25439 20.7885L7.44833 19.3735C7.82421 19.5283 8.20008 19.6609 8.57595 19.7494L8.73072 21.5845C8.75283 21.8277 8.95182 22.0046 9.19503 22.0046H12.0915C12.3347 22.0046 12.5337 21.8277 12.5558 21.5845L12.7105 19.7494C13.0864 19.6609 13.4623 19.5283 13.8382 19.3735L15.0321 20.7885C15.1869 20.9654 15.4522 21.0096 15.6512 20.8549L17.9948 19.1524C18.1938 19.0197 18.2381 18.7544 18.1054 18.5554L17.1326 16.9635C17.3979 16.6539 17.619 16.3444 17.8401 16.0127L19.631 16.4328C19.8521 16.4771 20.0953 16.3665 20.1616 16.1233L21.0681 13.3595C21.1566 13.1384 21.046 12.8952 20.8249 12.8068ZM19.4541 15.4379L17.7516 15.0399C17.5526 14.9957 17.3537 15.0841 17.2431 15.261C16.9778 15.7474 16.6461 16.1896 16.2481 16.6097C16.1155 16.7645 16.0934 16.9856 16.2039 17.1625L17.1326 18.666L15.4743 19.882L14.3246 18.5333C14.1919 18.3785 13.9708 18.3343 13.7939 18.4227C13.2633 18.666 12.7326 18.8428 12.202 18.9534C12.003 18.9976 11.8482 19.1524 11.8482 19.3735L11.7156 21.1202H9.65934L9.52668 19.3735C9.50457 19.1745 9.37191 18.9976 9.17292 18.9534C8.64228 18.8428 8.11164 18.666 7.58099 18.4227C7.40411 18.3343 7.18301 18.3785 7.05035 18.5333L5.90063 19.882L4.24237 18.666L5.171 17.1625C5.28155 16.9856 5.25944 16.7645 5.12678 16.6097C4.7509 16.1896 4.41925 15.7474 4.13182 15.261C4.02127 15.0841 3.82228 14.9957 3.62329 15.0399L1.8987 15.46L1.21329 13.4922L2.84944 12.8068C3.02632 12.7183 3.15898 12.5415 3.13687 12.3425C3.11476 12.0329 3.09265 11.7676 3.09265 11.5023C3.09265 11.237 3.11476 10.9716 3.13687 10.6621C3.15898 10.4631 3.04843 10.2641 2.84944 10.1978L1.21329 9.51238L1.85448 7.54458L3.57907 7.96468C3.77806 8.0089 3.97705 7.92046 4.0876 7.74358C4.35292 7.25715 4.68457 6.81495 5.08256 6.39486C5.21522 6.24009 5.23733 6.01899 5.12678 5.84211L4.19815 4.33862L5.85641 3.12257L7.00613 4.47128C7.13879 4.62605 7.35989 4.67027 7.53678 4.58183C8.06742 4.33862 8.59806 4.16174 9.1287 4.05119C9.32769 4.00697 9.48246 3.8522 9.48246 3.6311L9.61512 1.8844H11.6714L11.804 3.6311C11.8261 3.83009 11.9588 4.00697 12.1578 4.05119C12.6884 4.16174 13.2191 4.33862 13.7497 4.58183C13.9266 4.67027 14.1477 4.62605 14.2804 4.47128L15.4301 3.12257L17.0883 4.33862L16.1597 5.84211C16.0492 6.01899 16.0713 6.24009 16.2039 6.39486C16.5798 6.81495 16.9115 7.27926 17.1989 7.74358C17.3094 7.92046 17.5084 8.0089 17.7074 7.96468L19.432 7.54458L20.0732 9.51238L18.437 10.1978C18.2602 10.2862 18.1275 10.4631 18.1496 10.6621C18.1717 10.9716 18.1938 11.237 18.1938 11.5023C18.1938 11.7676 18.1717 12.0329 18.1496 12.3425C18.1275 12.5415 18.2381 12.7405 18.437 12.8068L20.0732 13.4922L19.4541 15.4379Z" fill="#191919"/>
<path d="M20.8249 12.8068L19.1225 12.0993C19.1446 11.9003 19.1446 11.7013 19.1446 11.5023C19.1446 11.3033 19.1446 11.1043 19.1225 10.9053L20.8249 10.1978C21.046 10.1094 21.1566 9.86614 21.0903 9.64504L20.1837 6.88128C20.1174 6.66018 19.8742 6.52752 19.6531 6.57174L17.8622 6.99183C17.6632 6.66018 17.42 6.35064 17.1547 6.0411L18.1275 4.44917C18.2602 4.25018 18.1938 3.98486 18.017 3.8522L15.6512 2.14972C15.4522 2.01706 15.1869 2.03917 15.0321 2.21605L13.8382 3.6311C13.4623 3.47633 13.0864 3.34367 12.7105 3.25523L12.5558 1.42009C12.5337 1.17688 12.3347 1 12.0915 1H9.19503C8.95182 1 8.75283 1.17688 8.73072 1.42009L8.57595 3.25523C8.20008 3.34367 7.82421 3.47633 7.44833 3.6311L6.2765 2.21605C6.12173 2.03917 5.85641 1.99495 5.65742 2.14972L3.31375 3.8522C3.11476 3.98486 3.07054 4.25018 3.2032 4.44917L4.17604 6.0411C3.91072 6.35064 3.68962 6.66018 3.46852 6.99183L1.6776 6.57174C1.4565 6.52752 1.21329 6.63807 1.14696 6.88128L0.218336 9.64504C0.152006 9.86614 0.262556 10.1094 0.483657 10.1978L2.18613 10.9053C2.16402 11.1043 2.16402 11.3033 2.16402 11.5023C2.16402 11.7013 2.16402 11.9003 2.18613 12.0993L0.483657 12.8068C0.262556 12.8952 0.152006 13.1384 0.218336 13.3595L1.12485 16.1233C1.19118 16.3444 1.43439 16.4771 1.65549 16.4328L3.44641 16.0127C3.6454 16.3444 3.88861 16.6761 4.15393 16.9635L3.18109 18.5554C3.04843 18.7544 3.11476 19.0197 3.29164 19.1524L5.63531 20.8549C5.8343 20.9875 6.09962 20.9654 6.25439 20.7885L7.44833 19.3735C7.82421 19.5283 8.20008 19.6609 8.57595 19.7494L8.73072 21.5845C8.75283 21.8277 8.95182 22.0046 9.19503 22.0046H12.0915C12.3347 22.0046 12.5337 21.8277 12.5558 21.5845L12.7105 19.7494C13.0864 19.6609 13.4623 19.5283 13.8382 19.3735L15.0321 20.7885C15.1869 20.9654 15.4522 21.0096 15.6512 20.8549L17.9948 19.1524C18.1938 19.0197 18.2381 18.7544 18.1054 18.5554L17.1326 16.9635C17.3979 16.6539 17.619 16.3444 17.8401 16.0127L19.631 16.4328C19.8521 16.4771 20.0953 16.3665 20.1616 16.1233L21.0681 13.3595C21.1566 13.1384 21.046 12.8952 20.8249 12.8068ZM19.4541 15.4379L17.7516 15.0399C17.5526 14.9957 17.3537 15.0841 17.2431 15.261C16.9778 15.7474 16.6461 16.1896 16.2481 16.6097C16.1155 16.7645 16.0934 16.9856 16.2039 17.1625L17.1326 18.666L15.4743 19.882L14.3246 18.5333C14.1919 18.3785 13.9708 18.3343 13.7939 18.4227C13.2633 18.666 12.7326 18.8428 12.202 18.9534C12.003 18.9976 11.8482 19.1524 11.8482 19.3735L11.7156 21.1202H9.65934L9.52668 19.3735C9.50457 19.1745 9.37191 18.9976 9.17292 18.9534C8.64228 18.8428 8.11164 18.666 7.58099 18.4227C7.40411 18.3343 7.18301 18.3785 7.05035 18.5333L5.90063 19.882L4.24237 18.666L5.171 17.1625C5.28155 16.9856 5.25944 16.7645 5.12678 16.6097C4.7509 16.1896 4.41925 15.7474 4.13182 15.261C4.02127 15.0841 3.82228 14.9957 3.62329 15.0399L1.8987 15.46L1.21329 13.4922L2.84944 12.8068C3.02632 12.7183 3.15898 12.5415 3.13687 12.3425C3.11476 12.0329 3.09265 11.7676 3.09265 11.5023C3.09265 11.237 3.11476 10.9716 3.13687 10.6621C3.15898 10.4631 3.04843 10.2641 2.84944 10.1978L1.21329 9.51238L1.85448 7.54458L3.57907 7.96468C3.77806 8.0089 3.97705 7.92046 4.0876 7.74358C4.35292 7.25715 4.68457 6.81495 5.08256 6.39486C5.21522 6.24009 5.23733 6.01899 5.12678 5.84211L4.19815 4.33862L5.85641 3.12257L7.00613 4.47128C7.13879 4.62605 7.35989 4.67027 7.53678 4.58183C8.06742 4.33862 8.59806 4.16174 9.1287 4.05119C9.32769 4.00697 9.48246 3.8522 9.48246 3.6311L9.61512 1.8844H11.6714L11.804 3.6311C11.8261 3.83009 11.9588 4.00697 12.1578 4.05119C12.6884 4.16174 13.2191 4.33862 13.7497 4.58183C13.9266 4.67027 14.1477 4.62605 14.2804 4.47128L15.4301 3.12257L17.0883 4.33862L16.1597 5.84211C16.0492 6.01899 16.0713 6.24009 16.2039 6.39486C16.5798 6.81495 16.9115 7.27926 17.1989 7.74358C17.3094 7.92046 17.5084 8.0089 17.7074 7.96468L19.432 7.54458L20.0732 9.51238L18.437 10.1978C18.2602 10.2862 18.1275 10.4631 18.1496 10.6621C18.1717 10.9716 18.1938 11.237 18.1938 11.5023C18.1938 11.7676 18.1717 12.0329 18.1496 12.3425C18.1275 12.5415 18.2381 12.7405 18.437 12.8068L20.0732 13.4922L19.4541 15.4379Z" stroke="#191919" stroke-width="0.4" mask="url(#path-2-outside-1_13542_8387)"/>
</svg>
